X: 10183
T: MOLL TIERNEY
O: Irish air.
Q: "Vivatiously."
%R: air, jig
B: W. Hamilton "Universal Tune-Book" Vol. 1 Glasgow 1844 p.18 #3
S: http://imslp.org/wiki/Hamilton's_Universal_Tune-Book_(Various)
Z: 2016 John Chambers <jc:trillian.mit.edu>
M: 6/8
L: 1/8
K: G
% - - - - - - - - - - - - - - - - - - - - - - - - -
E |\
D2E G2A | B2B BAG | A2A AGF |\
G2G GFE | c2A Bcd | EFE E2e |\
EFE E2e | D2E G2A | BcB BAG |
ABA AGF | GAG GED | c2A Bcd |\
DED D2d | DED D2 |]| d | ded dcB |\
cdc cBA | BcB BGF | ABA AGE |
c2A Bcd | EFE E2e | EFE E2e |\
ded dcB | cdc cBA | BcB BGF |\
ABA AGE | c2A Bcd | DED D2d |\
DED D2 |]
% - - - - - - - - - - - - - - - - - - - - - - - - -

%%sep 1 1 500
%%sep 1 1 500

